assets/img/braze_icons/droplets-02.svg

<svg fill="none" height="24" viewBox="0 0 24 24" width="24" xmlns="http://www.w3.org/2000/svg"><path d="m12.9806 2.30388c-.0935-.46742-.5039-.80388-.9806-.80388s-.8871.33646-.9806.80388c-.452 2.2599-1.82021 4.45614-3.6441 5.91525-2.17962 1.7437-3.3753 3.91027-3.3753 6.28087 0 2.1217.84285 4.1566 2.34315 5.6569 1.50029 1.5002 3.53512 2.3431 5.65685 2.3431 2.1217 0 4.1566-.8429 5.6569-2.3431 1.5002-1.5003 2.3431-3.5352 2.3431-5.6569 0-2.3706-1.1957-4.53717-3.3753-6.28087-1.8239-1.45911-3.1921-3.65535-3.6441-5.91525z" fill="#801ed7"/></svg>

<svg width="24" height="24" viewBox="0 0 24 24" fill="none" xmlns="http://www.w3.org/2000/svg">
<path d="M12.9806 2.30388C12.8871 1.83646 12.4767 1.5 12 1.5C11.5233 1.5 11.1129 1.83646 11.0194 2.30388C10.5674 4.56378 9.19919 6.76002 7.3753 8.21913C5.19568 9.96283 4 12.1294 4 14.5C4 16.6217 4.84285 18.6566 6.34315 20.1569C7.84344 21.6571 9.87827 22.5 12 22.5C14.1217 22.5 16.1566 21.6571 17.6569 20.1569C19.1571 18.6566 20 16.6217 20 14.5C20 12.1294 18.8043 9.96283 16.6247 8.21913C14.8008 6.76002 13.4326 4.56378 12.9806 2.30388Z" fill="#801ED7"/>
</svg>
